X: 1
T:Chariots of Fire
M:C
L:1/8
Q:80
C:March
S:
K:HP
{g}A|
{Gdc}de/4f3/4{g}e2{g}c3{e}A|
{Gdc}de/4f3/4{g}e4-e{g}A|
{Gdc}de/4f3/4{g}e2{g}c3{e}c|  !
{g}d/2c{d}A/2{g}A4-A{g}A|
{Gdc}de/4f3/4{g}e2{g}c3{e}A|
{Gdc}de/4f3/4{g}e4-e{g}A|  !
{Gdc}de/4f3/4{g}e2{g}c3{e}c|
{g}d/2c{d}A/2{g}A4-A{g}A:|
ag/4{a}f3/4{g}e2{g}c3{g}A|  !
ag/4{a}f3/4{g}e4-e{g}A|
ag/4{a}f3/4{g}e2{g}c3{e}c|
{g}d/2c{d}A/2{g}A4-A{g}A|  !
ag/4{a}f3/4{g}e2{g}c3{g}A|
{Gdc}de/4f3/4{g}e2-e{g}A|
{Gdc}de/4f3/4{g}e2{g}c3{e}c|  !
{g}d/2c{d}A/2{g}A4-A|
